!!! OTL: Berkowitz416
!!! Chapter: 1
!!! Section: IV
!!! Page: 103
!!! Mode: 
!!! Encoder: DJB
**kern
*staff1
*I"Piano
=1-
*clefC4
*k[]
*a:
*M4/4
4.A\
8B\
4c\
8B\L
8A\J
=2
4A#\
4B\
4r
4E/
=3
4.B\
8c\
4d\
8c\L
8B\J
=4
4B\
4c\
4r
4c#\
=5
4d\
4e\
4f\
4G#/
=6
4A\
4B\
4c\
8B\L
8A\J
=7
8G#\L
8A\
8B\
8c\J
8d\L
8e\J
4f\
=8
8e\L
8d\
8c\
8B\J
4A\
4r
==
*-
